X:647
T:
S:Från Gotlands fornsal.
R:kadrilj
O:Gotland
M:2/4
L:1/16
K:F
c2|f2fa e2eg|f2fa e2eg|f2f2g2a2|b3g fedc|
f2fe f2e2|d2dc d2c2|B2A2G2F2|[G,Ec]4 z2:|
|:c2|c3B cdef|g2g2 e2c2|c2dc B2A2|A4G4|
F2FE F2A2|c2f2 a4|gabg efge|f2a2f2:|
M:3/8
c2|a2gfed|d2c2c2|c2B2B2|B4 d2|
bgec=Bc|Acdefg|a2b2g2|f4:|

